svg/u1f60c.svg

<svg viewBox="0 0 128 128" xmlns="http://www.w3.org/2000/svg">
  <g id="gold">
    <radialGradient id="face_1_" cx="63.6" cy="1104.9" gradientTransform="matrix(1 0 0 1 0 -1042)" gradientUnits="userSpaceOnUse" r="56.9597">
      <stop offset="0.5" stop-color="#FDE030"/>
      <stop offset="0.92" stop-color="#F7C02B"/>
      <stop offset="1" stop-color="#F4A223"/>
    </radialGradient>
    <path id="face" d="M63.6,118.8c-27.9,0-58-17.5-58-55.9S35.7,7,63.6,7c15.5,0,29.8,5.1,40.4,14.4 c11.5,10.2,17.6,24.6,17.6,41.5s-6.1,31.2-17.6,41.4C93.4,113.6,79,118.8,63.6,118.8z" fill="url(#face_1_)"/>
    <path d="M111.49,29.67c5.33,8.6,8.11,18.84,8.11,30.23c0,16.9-6.1,31.2-17.6,41.4 c-10.6,9.3-25,14.5-40.4,14.5c-18.06,0-37-7.35-48.18-22.94c10.76,17.66,31,25.94,50.18,25.94c15.4,0,29.8-5.2,40.4-14.5 c11.5-10.2,17.6-24.5,17.6-41.4C121.6,50.16,118.13,38.84,111.49,29.67z" fill="#EB8F00"/>
  </g>
  <g id="facial_expressions">
    <g id="relieved-face">
      <path id="mouth" d="M64,101c-8.54,0-14.63-6.29-16.47-9.78c-0.7-1.18-0.83-2.62-0.37-3.91 c0.28-0.77,1.02-1.29,1.84-1.31c0.28,0.01,0.55,0.06,0.81,0.16c4.3,1.69,8.07,4.14,14.24,4.14s10-2.45,14.24-4.14 c0.26-0.1,0.53-0.16,0.81-0.16c0.81,0.04,1.51,0.55,1.79,1.31c0.46,1.29,0.33,2.73-0.37,3.91C78.63,94.71,72.54,101,64,101z" fill="#422B0D"/>
      <g id="eyes">
        <g id="peepers">
          <path d="M49.51,54.37l-0.2,0.2c-0.16,0.18-0.33,0.35-0.51,0.5l-0.69,0.57c-0.29,0.22-0.62,0.46-1,0.7 s-0.77,0.47-1.2,0.69c-0.44,0.22-0.9,0.41-1.37,0.57c-0.49,0.15-0.99,0.27-1.5,0.37c-0.52,0.08-1.04,0.12-1.57,0.12H41 c-0.26,0-0.31,0-0.41,0L39.89,58c-0.51-0.1-1.01-0.22-1.5-0.37C37.91,57.45,37.45,57.24,37,57c-0.43-0.22-0.83-0.46-1.2-0.69 c-0.59-0.39-1.14-0.83-1.66-1.31l-0.63-0.58l-0.25-0.25C31.98,53,30.05,52.93,28.69,54c-0.99,0.76-1.32,2.12-0.78,3.25l0.15,0.3 c0.13,0.29,0.28,0.57,0.44,0.84c1.03,1.72,2.43,3.19,4.09,4.32c0.79,0.55,1.63,1.02,2.51,1.4c0.97,0.43,1.97,0.76,3,1 c0.55,0.1,1.06,0.2,1.73,0.26c0.31,0,0.67,0.06,0.83,0.06h0.78c1.12-0.02,2.23-0.13,3.33-0.35c1.03-0.24,2.03-0.57,3-1 c0.88-0.38,1.72-0.85,2.51-1.4c1.24-0.84,2.34-1.88,3.25-3.07l0.48-0.67l0.4-0.63c0.15-0.24,0.28-0.5,0.39-0.77l0.11-0.25 c0.6-1.43-0.08-3.08-1.51-3.68c-0.1-0.04-0.2-0.08-0.3-0.1C51.84,53.11,50.45,53.44,49.51,54.37z" fill="#422B0D"/>
          <path d="M94.51,54.37l-0.2,0.2c-0.16,0.18-0.33,0.35-0.51,0.5l-0.69,0.57c-0.29,0.22-0.62,0.46-1,0.7 s-0.77,0.47-1.2,0.69c-0.44,0.22-0.9,0.41-1.37,0.57c-0.49,0.15-0.99,0.27-1.5,0.37c-0.52,0.08-1.04,0.12-1.57,0.12H86 c-0.26,0-0.31,0-0.41,0L84.89,58c-0.51-0.1-1.01-0.22-1.5-0.37C82.91,57.45,82.45,57.24,82,57c-0.43-0.22-0.83-0.46-1.2-0.69 c-0.59-0.39-1.14-0.83-1.66-1.31l-0.63-0.58l-0.25-0.25C76.98,53,75.05,52.93,73.69,54c-0.99,0.76-1.32,2.12-0.78,3.25l0.15,0.3 c0.13,0.29,0.28,0.57,0.44,0.84c1.03,1.72,2.43,3.19,4.09,4.32c0.79,0.55,1.63,1.02,2.51,1.4c0.98,0.43,2,0.77,3.05,1 c0.55,0.1,1.06,0.2,1.73,0.26c0.31,0,0.67,0.06,0.83,0.06h0.78c1.12-0.02,2.23-0.13,3.33-0.35c1.05-0.23,2.07-0.57,3.05-1 c0.88-0.38,1.72-0.85,2.51-1.4c1.24-0.84,2.34-1.88,3.25-3.07l0.48-0.67l0.4-0.63c0.15-0.24,0.28-0.5,0.39-0.77l0.11-0.25 c0.6-1.43-0.08-3.08-1.51-3.68c-0.1-0.04-0.2-0.08-0.3-0.1C96.91,53.06,95.47,53.4,94.51,54.37z" fill="#422B0D"/>
        </g>
      </g>
    </g>
    <g id="eyebrows">
      <path d="M28.42,43.28c-0.7,0.73-1.87,0.76-2.6,0.05c-0.66-0.63-0.75-1.66-0.22-2.4 c1.12-1.6,2.49-3.01,4.07-4.17c4.19-3.23,9.44-4.76,14.71-4.27c2.48,0.31,2,3.48-0.21,3.69C38.25,36.65,32.69,39.16,28.42,43.28 L28.42,43.28" fill="#422B0D"/>
    </g>
    <g id="eyebrows-2">
      <path d="M98.49,43.28c0.7,0.73,1.87,0.76,2.6,0.05c0.66-0.63,0.75-1.66,0.22-2.4 c-1.12-1.6-2.49-3.01-4.07-4.17c-4.19-3.23-9.44-4.76-14.71-4.27c-2.48,0.31-2,3.48,0.21,3.69 C88.66,36.65,94.22,39.16,98.49,43.28L98.49,43.28" fill="#422B0D"/>
    </g>
  </g>
</svg>

<svg viewBox="0 0 128 128" xmlns="http://www.w3.org/2000/svg">
  <defs>
    <radialGradient id="face_1_" cx="63.6" cy="62.9" gradientUnits="userSpaceOnUse" r="56.9597">
      <stop offset="0.5" stop-color="#FDE030"/>
      <stop offset="0.92" stop-color="#F7C02B"/>
      <stop offset="1" stop-color="#F4A223"/>
    </radialGradient>
  </defs>
  <path id="face" d="M63.6,118.8 C35.7,118.8 5.6,101.3 5.6,62.9 C5.6,24.5 35.7,7 63.6,7 C79.1,7 93.4,12.1 104,21.4 C115.5,31.6 121.6,46 121.6,62.9 C121.6,79.8 115.5,94.1 104,104.3 C93.4,113.6 79,118.8 63.6,118.8 Z" fill="url(#face_1_)"/>
  <path d="M111.49,29.67 C116.82,38.27 119.6,48.51 119.6,59.9 C119.6,76.8 113.5,91.1 102,101.3 C91.4,110.6 77,115.8 61.6,115.8 C43.54,115.8 24.6,108.45 13.42,92.86 C24.18,110.52 44.42,118.8 63.6,118.8 C79,118.8 93.4,113.6 104,104.3 C115.5,94.1 121.6,79.8 121.6,62.9 C121.6,50.16 118.13,38.84 111.49,29.67 Z" fill="#EB8F00"/>
  <path id="mouth" d="M64,101 C55.46,101 49.37,94.71 47.53,91.22 C46.83,90.04 46.7,88.6 47.16,87.31 C47.44,86.54 48.18,86.02 49,86 C49.28,86.01 49.55,86.06 49.81,86.16 C54.11,87.85 57.88,90.3 64.05,90.3 C70.22,90.3 74.05,87.85 78.29,86.16 C78.55,86.06 78.82,86 79.1,86 C79.91,86.04 80.61,86.55 80.89,87.31 C81.35,88.6 81.22,90.04 80.52,91.22 C78.63,94.71 72.54,101 64,101 Z" fill="#422B0D"/>
  <path d="M49.51,54.37 L49.31,54.57 C49.15,54.75 48.98,54.92 48.8,55.07 L48.11,55.64 C47.82,55.86 47.49,56.1 47.11,56.34 C46.73,56.58 46.34,56.81 45.91,57.03 C45.47,57.25 45.01,57.44 44.54,57.6 C44.05,57.75 43.55,57.87 43.04,57.97 C42.52,58.05 42,58.09 41.47,58.09 L41,58.09 C40.74,58.09 40.69,58.09 40.59,58.09 L39.89,58 C39.38,57.9 38.88,57.78 38.39,57.63 C37.91,57.45 37.45,57.24 37,57 C36.57,56.78 36.17,56.54 35.8,56.31 C35.21,55.92 34.66,55.48 34.14,55 L33.51,54.42 L33.26,54.17 C31.98,53 30.05,52.93 28.69,54 C27.7,54.76 27.37,56.12 27.91,57.25 L28.06,57.55 C28.19,57.84 28.34,58.12 28.5,58.39 C29.53,60.11 30.93,61.58 32.59,62.71 C33.38,63.26 34.22,63.73 35.1,64.11 C36.07,64.54 37.07,64.87 38.1,65.11 C38.65,65.21 39.16,65.31 39.83,65.37 C40.14,65.37 40.5,65.43 40.66,65.43 L41.44,65.43 C42.56,65.41 43.67,65.3 44.77,65.08 C45.8,64.84 46.8,64.51 47.77,64.08 C48.65,63.7 49.49,63.23 50.28,62.68 C51.52,61.84 52.62,60.8 53.53,59.61 L54.01,58.94 L54.41,58.31 C54.56,58.07 54.69,57.81 54.8,57.54 L54.91,57.29 C55.51,55.86 54.83,54.21 53.4,53.61 C53.3,53.57 53.2,53.53 53.1,53.51 C51.84,53.11 50.45,53.44 49.51,54.37 Z" fill="#422B0D"/>
  <path d="M94.51,54.37 L94.31,54.57 C94.15,54.75 93.98,54.92 93.8,55.07 L93.11,55.64 C92.82,55.86 92.49,56.1 92.11,56.34 C91.73,56.58 91.34,56.81 90.91,57.03 C90.47,57.25 90.01,57.44 89.54,57.6 C89.05,57.75 88.55,57.87 88.04,57.97 C87.52,58.05 87,58.09 86.47,58.09 L86,58.09 C85.74,58.09 85.69,58.09 85.59,58.09 L84.89,58 C84.38,57.9 83.88,57.78 83.39,57.63 C82.91,57.45 82.45,57.24 82,57 C81.57,56.78 81.17,56.54 80.8,56.31 C80.21,55.92 79.66,55.48 79.14,55 L78.51,54.42 L78.26,54.17 C76.98,53 75.05,52.93 73.69,54 C72.7,54.76 72.37,56.12 72.91,57.25 L73.06,57.55 C73.19,57.84 73.34,58.12 73.5,58.39 C74.53,60.11 75.93,61.58 77.59,62.71 C78.38,63.26 79.22,63.73 80.1,64.11 C81.08,64.54 82.1,64.88 83.15,65.11 C83.7,65.21 84.21,65.31 84.88,65.37 C85.19,65.37 85.55,65.43 85.71,65.43 L86.49,65.43 C87.61,65.41 88.72,65.3 89.82,65.08 C90.87,64.85 91.89,64.51 92.87,64.08 C93.75,63.7 94.59,63.23 95.38,62.68 C96.62,61.84 97.72,60.8 98.63,59.61 L99.11,58.94 L99.51,58.31 C99.66,58.07 99.79,57.81 99.9,57.54 L100.01,57.29 C100.61,55.86 99.93,54.21 98.5,53.61 C98.4,53.57 98.3,53.53 98.2,53.51 C96.91,53.06 95.47,53.4 94.51,54.37 Z" fill="#422B0D"/>
  <path d="M28.42,43.28 C27.72,44.01 26.55,44.04 25.82,43.33 C25.16,42.7 25.07,41.67 25.6,40.93 C26.72,39.33 28.09,37.92 29.67,36.76 C33.86,33.53 39.11,32 44.38,32.49 C46.86,32.8 46.38,35.97 44.17,36.18 C38.25,36.65 32.69,39.16 28.42,43.28 L28.42,43.28" fill="#422B0D"/>
  <path d="M98.49,43.28 C99.19,44.01 100.36,44.04 101.09,43.33 C101.75,42.7 101.84,41.67 101.31,40.93 C100.19,39.33 98.82,37.92 97.24,36.76 C93.05,33.53 87.8,32 82.53,32.49 C80.05,32.8 80.53,35.97 82.74,36.18 C88.66,36.65 94.22,39.16 98.49,43.28 L98.49,43.28" fill="#422B0D"/>
</svg>
